;FLAVOR:Marlin
;TIME:9585
;Filament used: 5.28821m
;Layer height: 0.15
;MINX:36.7
;MINY:82.2
;MINZ:0.2
;MAXX:183.3
;MAXY:137.8
;MAXZ:32
;Generated with Cura_SteamEngine 4.2.1
M140 S60
M105
M190 S60
M104 S200
M105
M109 S200
M82 ;absolute extrusion mode
; -- START GCODE --
G21        ;metric values
G90        ;absolute positioning
M82        ;set extruder to absolute mode
M107       ;start with the fan off
G28 X0 Y0  ;move X/Y to min endstops
G28 Z0     ;move Z to min endstops
G1 Z1 F1000             ;move up slightly
G1 Y60.0 Z0 E9.0 F1000.0;intro line
G1 Y100.0 E21.5 F1000.0 ;continue line
G92 E0                  ;zero the extruded length again
G1 F80
;Put printing message on LCD screen
M117 Printing...
; -- end of START GCODE --
M141 S28
G92 E0
G92 E0
G1 F2700 E-5
;LAYER_COUNT:213
;LAYER:0
M107
G0 F3600 X71.688 Y83.955 Z0.2
;TYPE:SKIRT
G1 F2700 E0
G1 F1200 X72.324 Y83.488 E0.02624
G1 X73.004 Y83.087 E0.0525
G1 X73.722 Y82.757 E0.07878
G1 X74.469 Y82.502 E0.10504
G1 X75.238 Y82.323 E0.1313
G1 X76.022 Y82.223 E0.15758
G1 X76.617 Y82.2 E0.17739
G1 X158.383 Y82.2 E2.89694
G1 X159.172 Y82.24 E2.92321
G1 X159.952 Y82.359 E2.94946
G1 X160.717 Y82.557 E2.97574
G1 X161.457 Y82.831 E3.00198
G1 X162.166 Y83.179 E3.02825
G1 X162.837 Y83.597 E3.05455
G1 X163.461 Y84.08 E3.08079
G1 X163.898 Y84.485 E3.10061
G1 X164.015 Y84.602 E3.10611
G1 X164.545 Y85.188 E3.13239
G1 X165.012 Y85.824 E3.15863
G1 X165.413 Y86.504 E3.18489
G1 X165.743 Y87.222 E3.21117
G1 X165.998 Y87.969 E3.23743
G1 X166.177 Y88.738 E3.26369
G1 X166.277 Y89.522 E3.28997
G1 X166.3 Y90.117 E3.30978
G1 X166.3 Y119.2 E4.27708
G1 X175.383 Y119.2 E4.57919
G1 X176.172 Y119.24 E4.60546
G1 X176.952 Y119.359 E4.6317
G1 X177.717 Y119.557 E4.65799
G1 X178.457 Y119.831 E4.68423
G1 X179.166 Y120.179 E4.7105
G1 X179.837 Y120.597 E4.73679
G1 X180.461 Y121.08 E4.76304
G1 X180.898 Y121.485 E4.78286
G1 X181.015 Y121.602 E4.78836
G1 X181.545 Y122.188 E4.81464
G1 X182.012 Y122.824 E4.84088
G1 X182.413 Y123.504 E4.86714
G1 X182.743 Y124.222 E4.89342
G1 X182.998 Y124.969 E4.91968
G1 X183.177 Y125.738 E4.94594
G1 X183.277 Y126.522 E4.97222
G1 X183.3 Y127.117 E4.99203
G1 X183.3 Y129.873 E5.08369
G1 X183.26 Y130.662 E5.10997
G1 X183.141 Y131.442 E5.13621
G1 X182.943 Y132.207 E5.16249
G1 X182.669 Y132.947 E5.18874
G1 X182.321 Y133.656 E5.21501
G1 X181.903 Y134.327 E5.2413
G1 X181.42 Y134.951 E5.26755
G1 X181.015 Y135.388 E5.28736
G1 X180.898 Y135.505 E5.29287
G1 X180.312 Y136.035 E5.31915
G1 X179.676 Y136.502 E5.34539
G1 X178.996 Y136.903 E5.37165
G1 X178.278 Y137.233 E5.39793
G1 X177.531 Y137.488 E5.42418
G1 X176.762 Y137.667 E5.45044
G1 X175.978 Y137.767 E5.47673
G1 X175.387 Y137.79 E5.4964
G1 X155.621 Y137.8 E6.15382
G1 X154.832 Y137.76 E6.1801
G1 X154.052 Y137.641 E6.20634
G1 X153.287 Y137.444 E6.23262
G1 X152.546 Y137.17 E6.25889
G1 X151.837 Y136.823 E6.28515
G1 X151.167 Y136.406 E6.31139
G1 X150.542 Y135.923 E6.33767
G1 X150.102 Y135.515 E6.35762
G1 X149.985 Y135.398 E6.36313
G1 X149.455 Y134.812 E6.38941
G1 X148.988 Y134.176 E6.41565
G1 X148.587 Y133.496 E6.44191
G1 X148.257 Y132.778 E6.46819
G1 X148.002 Y132.031 E6.49444
G1 X147.823 Y131.262 E6.5207
G1 X147.723 Y130.478 E6.54699
G1 X147.7 Y129.883 E6.5668
G1 X147.7 Y100.8 E7.5341
G1 X87.3 Y100.8 E9.54301
G1 X87.3 Y129.883 E10.51032
G1 X87.26 Y130.672 E10.53659
G1 X87.141 Y131.452 E10.56284
G1 X86.943 Y132.217 E10.58912
G1 X86.669 Y132.957 E10.61536
G1 X86.321 Y133.666 E10.64163
G1 X85.903 Y134.337 E10.66793
G1 X85.42 Y134.961 E10.69417
G1 X85.015 Y135.398 E10.71399
G1 X84.898 Y135.515 E10.71949
G1 X84.312 Y136.045 E10.74577
G1 X83.676 Y136.512 E10.77201
G1 X82.996 Y136.913 E10.79827
G1 X82.278 Y137.243 E10.82455
G1 X81.531 Y137.498 E10.85081
G1 X80.762 Y137.677 E10.87707
G1 X79.978 Y137.777 E10.90335
G1 X79.383 Y137.8 E10.92316
G1 X44.617 Y137.8 E12.07948
G1 X43.828 Y137.76 E12.10576
G1 X43.048 Y137.641 E12.132
G1 X42.283 Y137.443 E12.15828
G1 X41.543 Y137.169 E12.18453
G1 X40.834 Y136.821 E12.2108
G1 X40.163 Y136.403 E12.23709
G1 X39.539 Y135.92 E12.26334
G1 X39.102 Y135.515 E12.28315
G1 X38.985 Y135.398 E12.28866
G1 X38.455 Y134.812 E12.31494
G1 X37.988 Y134.176 E12.34118
G1 X37.587 Y133.496 E12.36744
G1 X37.257 Y132.778 E12.39372
G1 X37.002 Y132.031 E12.41997
G1 X36.823 Y131.262 E12.44623
G1 X36.723 Y130.478 E12.47252
G1 X36.7 Y129.883 E12.49232
G1 X36.7 Y127.127 E12.58399
G1 X36.74 Y126.338 E12.61026
G1 X36.859 Y125.558 E12.63651
G1 X37.057 Y124.793 E12.66279
G1 X37.331 Y124.053 E12.68904
G1 X37.679 Y123.344 E12.7153
G1 X38.097 Y122.673 E12.7416
G1 X38.58 Y122.049 E12.76784
G1 X38.985 Y121.612 E12.78766
G1 X39.102 Y121.495 E12.79316
G1 X39.688 Y120.965 E12.81944
G1 X40.324 Y120.498 E12.84569
G1 X41.004 Y120.097 E12.87194
G1 X41.722 Y119.767 E12.89823
G1 X42.469 Y119.512 E12.92448
G1 X43.238 Y119.333 E12.95074
G1 X44.022 Y119.233 E12.97703
G1 X44.615 Y119.21 E12.99677
G1 X68.7 Y119.202 E13.79784
G1 X68.7 Y90.117 E14.76521
G1 X68.74 Y89.328 E14.79148
G1 X68.859 Y88.548 E14.81773
G1 X69.057 Y87.783 E14.84401
G1 X69.331 Y87.043 E14.87025
G1 X69.679 Y86.334 E14.89652
G1 X70.097 Y85.663 E14.92282
G1 X70.58 Y85.039 E14.94906
G1 X70.985 Y84.602 E14.96888
G1 X71.102 Y84.485 E14.97438
G1 X71.688 Y83.955 E15.00066
G0 F3600 X71.956 Y84.253
G1 F1200 X72.578 Y83.8 E15.02625
G1 X73.243 Y83.414 E15.05183
G1 X73.945 Y83.099 E15.07742
G1 X74.676 Y82.859 E15.10301
G1 X75.427 Y82.696 E15.12857
G1 X76.192 Y82.612 E15.15417
G1 X76.617 Y82.6 E15.16831
G1 X158.383 Y82.6 E17.88786
G1 X159.151 Y82.64 E17.91343
G1 X159.911 Y82.759 E17.93902
G1 X160.654 Y82.957 E17.96459
G1 X161.373 Y83.231 E17.99019
G1 X162.059 Y83.578 E18.01576
G1 X162.706 Y83.994 E18.04134
G1 X163.306 Y84.475 E18.06692
G1 X163.616 Y84.767 E18.08108
G1 X163.733 Y84.884 E18.08658
G1 X164.247 Y85.456 E18.11216
G1 X164.7 Y86.078 E18.13775
G1 X165.086 Y86.743 E18.16333
G1 X165.401 Y87.445 E18.18892
G1 X165.641 Y88.176 E18.21451
G1 X165.804 Y88.927 E18.24007
G1 X165.888 Y89.692 E18.26567
G1 X165.9 Y90.117 E18.27981
G1 X165.9 Y119.6 E19.26042
G1 X175.383 Y119.6 E19.57582
G1 X176.151 Y119.64 E19.6014
G1 X176.911 Y119.759 E19.62699
G1 X177.654 Y119.957 E19.65256
G1 X178.373 Y120.231 E19.67815
G1 X179.059 Y120.578 E19.70372
G1 X179.706 Y120.994 E19.72931
G1 X180.306 Y121.475 E19.75488
G1 X180.616 Y121.767 E19.76905
G1 X180.733 Y121.884 E19.77455
G1 X181.247 Y122.456 E19.80013
G1 X181.7 Y123.078 E19.82572
G1 X182.086 Y123.743 E19.8513
G1 X182.401 Y124.445 E19.87689
G1 X182.641 Y125.176 E19.90248
G1 X182.804 Y125.927 E19.92804
G1 X182.888 Y126.692 E19.95363
G1 X182.9 Y127.117 E19.96777
G1 X182.9 Y129.873 E20.05944
G1 X182.86 Y130.641 E20.08502
G1 X182.741 Y131.401 E20.1106
G1 X182.543 Y132.144 E20.13618
G1 X182.269 Y132.863 E20.16177
G1 X181.922 Y133.549 E20.18734
G1 X181.506 Y134.196 E20.21292
G1 X181.025 Y134.796 E20.2385
G1 X180.733 Y135.106 E20.25266
G1 X180.616 Y135.223 E20.25817
G1 X180.044 Y135.737 E20.28375
G1 X179.422 Y136.19 E20.30934
G1 X178.757 Y136.576 E20.33491
G1 X178.055 Y136.891 E20.3605
G1 X177.324 Y137.131 E20.38609
G1 X176.573 Y137.294 E20.41165
G1 X175.808 Y137.378 E20.43725
G1 X175.387 Y137.39 E20.45126
G1 X155.621 Y137.4 E21.10868
G1 X154.853 Y137.36 E21.13426
G1 X154.093 Y137.241 E21.15984
G1 X153.349 Y137.044 E21.18544
G1 X152.63 Y136.771 E21.21102
G1 X151.944 Y136.424 E21.23659
G1 X151.297 Y136.008 E21.26217
G1 X150.697 Y135.527 E21.28775
G1 X150.384 Y135.233 E21.30203
G1 X150.267 Y135.116 E21.30754
G1 X149.753 Y134.544 E21.33311
G1 X149.3 Y133.922 E21.35871
G1 X148.914 Y133.257 E21.38428
G1 X148.599 Y132.555 E21.40987
G1 X148.359 Y131.824 E21.43546
G1 X148.196 Y131.073 E21.46102
G1 X148.112 Y130.308 E21.48662
G1 X148.1 Y129.883 E21.50076
G1 X148.1 Y100.4 E22.48137
G1 X86.9 Y100.4 E24.51689
G1 X86.9 Y129.883 E25.4975
G1 X86.86 Y130.651 E25.52308
G1 X86.741 Y131.411 E25.54866
G1 X86.543 Y132.154 E25.57424
G1 X86.269 Y132.873 E25.59983
G1 X85.922 Y133.559 E25.6254
G1 X85.506 Y134.206 E25.65098
G1 X85.025 Y134.806 E25.67656
G1 X84.733 Y135.116 E25.69072
G1 X84.616 Y135.233 E25.69623
G1 X84.044 Y135.747 E25.7218
G1 X83.422 Y136.2 E25.7474
G1 X82.757 Y136.586 E25.77297
G1 X82.055 Y136.901 E25.79856
G1 X81.324 Y137.141 E25.82415
G1 X80.573 Y137.304 E25.84971
G1 X79.808 Y137.388 E25.87531
G1 X79.383 Y137.4 E25.88945
G1 X44.617 Y137.4 E27.04577
G1 X43.849 Y137.36 E27.07135
G1 X43.089 Y137.241 E27.09694
G1 X42.346 Y137.043 E27.12251
G1 X41.627 Y136.769 E27.1481
G1 X40.941 Y136.422 E27.17367
G1 X40.294 Y136.006 E27.19926
G1 X39.694 Y135.525 E27.22483
G1 X39.384 Y135.233 E27.239
G1 X39.267 Y135.116 E27.2445
G1 X38.753 Y134.544 E27.27008
G1 X38.3 Y133.922 E27.29567
G1 X37.914 Y133.257 E27.32124
G1 X37.599 Y132.555 E27.34684
G1 X37.359 Y131.824 E27.37243
G1 X37.196 Y131.073 E27.39799
G1 X37.112 Y130.308 E27.42358
G1 X37.1 Y129.883 E27.43772
G1 X37.1 Y127.127 E27.52939
G1 X37.14 Y126.359 E27.55497
G1 X37.259 Y125.599 E27.58055
G1 X37.457 Y124.856 E27.60613
G1 X37.731 Y124.137 E27.63172
G1 X38.078 Y123.451 E27.65729
G1 X38.494 Y122.804 E27.68287
G1 X38.975 Y122.204 E27.70845
G1 X39.267 Y121.894 E27.72261
G1 X39.384 Y121.777 E27.72812
G1 X39.956 Y121.263 E27.75369
G1 X40.578 Y120.81 E27.77929
G1 X41.243 Y120.424 E27.80486
G1 X41.945 Y120.109 E27.83045
G1 X42.676 Y119.869 E27.85604
G1 X43.427 Y119.706 E27.8816
G1 X44.192 Y119.622 E27.9072
G1 X44.615 Y119.61 E27.92127
G1 X69.1 Y119.602 E28.73565
G1 X69.1 Y90.117 E29.71632
G1 X69.14 Y89.349 E29.7419
G1 X69.259 Y88.589 E29.76749
G1 X69.457 Y87.846 E29.79306
G1 X69.731 Y87.127 E29.81865
G1 X70.078 Y86.441 E29.84422
G1 X70.494 Y85.794 E29.86981
G1 X70.975 Y85.194 E29.89538
G1 X71.267 Y84.884 E29.90955
G1 X71.384 Y84.767 E29.91505
G1 X71.956 Y84.253 E29.94063
G0 F3600 X72.224 Y84.55
G1 F1200 X72.83 Y84.113 E29.96548
G1 X73.48 Y83.742 E29.99037
G1 X74.166 Y83.443 E30.01526
G1 X74.88 Y83.219 E30.04015
G1 X75.613 Y83.072 E30.06502
G1 X76.617 Y83 E30.0985
G1 X158.383 Y83 E32.81804
G1 X159.13 Y83.04 E32.84292
G1 X159.868 Y83.159 E32.86779
G1 X160.59 Y83.357 E32.89269
G1 X161.286 Y83.63 E32.91755
G1 X161.949 Y83.977 E32.94244
G1 X162.572 Y84.392 E32.96734
G1 X163.333 Y85.05 E33.0008
G1 X163.45 Y85.167 E33.0063
G1 X163.95 Y85.724 E33.0312
G1 X164.387 Y86.33 E33.05605
G1 X164.758 Y86.98 E33.08094
G1 X165.057 Y87.666 E33.10583
G1 X165.281 Y88.38 E33.13072
G1 X165.428 Y89.113 E33.15559
G1 X165.5 Y90.117 E33.18906
G1 X165.5 Y120 E34.18298
G1 X175.383 Y120 E34.51169
G1 X176.13 Y120.04 E34.53657
G1 X176.868 Y120.159 E34.56143
G1 X177.59 Y120.357 E34.58633
G1 X178.286 Y120.63 E34.6112
G1 X178.949 Y120.977 E34.63609
G1 X179.572 Y121.392 E34.66098
G1 X180.333 Y122.05 E34.69444
G1 X180.45 Y122.167 E34.69995
G1 X180.95 Y122.724 E34.72484
G1 X181.387 Y123.33 E34.74969
G1 X181.758 Y123.98 E34.77459
G1 X182.057 Y124.666 E34.79947
G1 X182.281 Y125.38 E34.82436
G1 X182.428 Y126.113 E34.84923
G1 X182.5 Y127.117 E34.88271
G1 X182.5 Y129.873 E34.97437
G1 X182.46 Y130.62 E34.99925
G1 X182.341 Y131.358 E35.02412
G1 X182.143 Y132.08 E35.04902
G1 X181.87 Y132.776 E35.07388
G1 X181.523 Y133.439 E35.09877
G1 X181.108 Y134.062 E35.12367
G1 X180.45 Y134.823 E35.15713
G1 X180.333 Y134.94 E35.16263
G1 X179.776 Y135.44 E35.18753
G1 X179.17 Y135.877 E35.21238
G1 X178.52 Y136.248 E35.23727
G1 X177.834 Y136.547 E35.26216
G1 X177.12 Y136.771 E35.28705
G1 X176.387 Y136.918 E35.31192
G1 X175.387 Y136.99 E35.34526
G1 X155.621 Y137 E36.00268
G1 X154.874 Y136.96 E36.02756
G1 X154.135 Y136.841 E36.05246
G1 X153.413 Y136.644 E36.07735
G1 X152.717 Y136.371 E36.10222
G1 X152.054 Y136.025 E36.12709
G1 X151.431 Y135.61 E36.15199
G1 X150.667 Y134.95 E36.18557
G1 X150.55 Y134.833 E36.19107
G1 X150.05 Y134.276 E36.21596
G1 X149.613 Y133.67 E36.24081
G1 X149.242 Y133.02 E36.26571
G1 X148.943 Y132.334 E36.2906
G1 X148.719 Y131.62 E36.31549
G1 X148.572 Y130.887 E36.34035
G1 X148.5 Y129.883 E36.37383
G1 X148.5 Y100 E37.36774
G1 X86.5 Y100 E39.42987
G1 X86.5 Y129.883 E40.42378
G1 X86.46 Y130.63 E40.44866
G1 X86.341 Y131.368 E40.47353
G1 X86.143 Y132.09 E40.49843
G1 X85.87 Y132.786 E40.52329
G1 X85.523 Y133.449 E40.54818
G1 X85.108 Y134.072 E40.57308
G1 X84.45 Y134.833 E40.60654
G1 X84.333 Y134.95 E40.61204
G1 X83.776 Y135.45 E40.63694
G1 X83.17 Y135.887 E40.66179
G1 X82.52 Y136.258 E40.68668
G1 X81.834 Y136.557 E40.71157
G1 X81.12 Y136.781 E40.73646
G1 X80.387 Y136.928 E40.76133
G1 X79.383 Y137 E40.7948
G1 X44.617 Y137 E41.95113
G1 X43.87 Y136.96 E41.97601
G1 X43.132 Y136.841 E42.00087
G1 X42.41 Y136.643 E42.02577
G1 X41.714 Y136.37 E42.05064
G1 X41.051 Y136.023 E42.07553
G1 X40.428 Y135.608 E42.10042
G1 X39.667 Y134.95 E42.13388
G1 X39.55 Y134.833 E42.13939
G1 X39.05 Y134.276 E42.16428
G1 X38.613 Y133.67 E42.18913
G1 X38.242 Y133.02 E42.21403
G1 X37.943 Y132.334 E42.23891
G1 X37.719 Y131.62 E42.2638
G1 X37.572 Y130.887 E42.28867
G1 X37.5 Y129.883 E42.32215
G1 X37.5 Y127.127 E42.41381
G1 X37.54 Y126.38 E42.43869
G1 X37.659 Y125.642 E42.46356
G1 X37.857 Y124.92 E42.48846
G1 X38.13 Y124.224 E42.51332
G1 X38.477 Y123.561 E42.53821
G1 X38.892 Y122.938 E42.56311
G1 X39.55 Y122.177 E42.59657
G1 X39.667 Y122.06 E42.60207
G1 X40.224 Y121.56 E42.62697
G1 X40.83 Y121.123 E42.65182
G1 X41.48 Y120.752 E42.67671
G1 X42.166 Y120.453 E42.7016
G1 X42.88 Y120.229 E42.72649
G1 X43.613 Y120.082 E42.75135
G1 X44.615 Y120.01 E42.78477
G1 X69.5 Y120.002 E43.61245
G1 X69.5 Y90.117 E44.60642
G1 X69.54 Y89.37 E44.63131
G1 X69.659 Y88.632 E44.65617
G1 X69.857 Y87.91 E44.68107
G1 X70.13 Y87.214 E44.70594
G1 X70.477 Y86.551 E44.73082
G1 X70.892 Y85.928 E44.75572
G1 X71.55 Y85.167 E44.78918
G1 X71.667 Y85.05 E44.79469
G1 X72.224 Y84.55 E44.81958
G0 F3600 X72.491 Y84.849
G1 F1200 X73.082 Y84.426 E44.84375
G1 X73.716 Y84.072 E44.86791
G1 X74.385 Y83.789 E44.89207
G1 X75.081 Y83.581 E44.91623
G1 X75.796 Y83.451 E44.9404
G1 X76.617 Y83.4 E44.96776
G1 X158.383 Y83.4 E47.6873
G1 X159.108 Y83.44 E47.71145
G1 X159.825 Y83.559 E47.73563
G1 X160.524 Y83.757 E47.75979
G1 X161.197 Y84.03 E47.78395
G1 X161.836 Y84.375 E47.8081
G1 X162.433 Y84.789 E47.83226
G1 X163.05 Y85.333 E47.85962
G1 X163.167 Y85.45 E47.86513
G1 X163.651 Y85.991 E47.88927
G1 X164.074 Y86.582 E47.91344
G1 X164.428 Y87.216 E47.93759
G1 X164.711 Y87.885 E47.96175
G1 X164.919 Y88.581 E47.98591
G1 X165.049 Y89.296 E48.01009
G1 X165.1 Y90.117 E48.03744
G1 X165.1 Y120.4 E49.04466
G1 X175.383 Y120.4 E49.38668
G1 X176.108 Y120.44 E49.41083
G1 X176.825 Y120.559 E49.435
G1 X177.524 Y120.757 E49.45916
G1 X178.197 Y121.03 E49.48332
G1 X178.836 Y121.375 E49.50747
G1 X179.433 Y121.789 E49.53164
G1 X180.05 Y122.333 E49.55899
G1 X180.167 Y122.45 E49.5645
G1 X180.651 Y122.991 E49.58864
G1 X181.074 Y123.582 E49.61281
G1 X181.428 Y124.216 E49.63697
G1 X181.711 Y124.885 E49.66113
G1 X181.919 Y125.581 E49.68529
G1 X182.049 Y126.296 E49.70946
G1 X182.1 Y127.117 E49.73682
G1 X182.1 Y129.873 E49.82848
G1 X182.06 Y130.598 E49.85263
G1 X181.941 Y131.315 E49.8768
G1 X181.743 Y132.014 E49.90097
G1 X181.47 Y132.687 E49.92512
G1 X181.125 Y133.326 E49.94928
G1 X180.711 Y133.923 E49.97344
G1 X180.167 Y134.54 E50.0008
G1 X180.05 Y134.657 E50.0063
G1 X179.509 Y135.141 E50.03045
G1 X178.918 Y135.564 E50.05462
G1 X178.284 Y135.918 E50.07877
G1 X177.615 Y136.201 E50.10293
G1 X176.919 Y136.409 E50.12709
G1 X176.204 Y136.539 E50.15126
G1 X175.386 Y136.59 E50.17852
G1 X155.62 Y136.6 E50.83594
G1 X154.895 Y136.56 E50.86009
G1 X154.179 Y136.441 E50.88423
G1 X153.479 Y136.244 E50.90842
G1 X152.806 Y135.972 E50.93256
G1 X152.167 Y135.627 E50.95672
G1 X151.57 Y135.213 E50.98088
G1 X150.95 Y134.667 E51.00836
G1 X150.833 Y134.55 E51.01386
G1 X150.349 Y134.009 E51.038
G1 X149.926 Y133.418 E51.06218
G1 X149.572 Y132.784 E51.08633
G1 X149.289 Y132.115 E51.11049
G1 X149.081 Y131.419 E51.13465
G1 X148.951 Y130.704 E51.15882
G1 X148.9 Y129.883 E51.18618
G1 X148.9 Y99.6 E52.1934
G1 X86.1 Y99.6 E54.28213
G1 X86.1 Y129.883 E55.28935
G1 X86.06 Y130.608 E55.3135
G1 X85.941 Y131.325 E55.33767
G1 X85.743 Y132.024 E55.36184
G1 X85.47 Y132.697 E55.38599
G1 X85.125 Y133.336 E55.41014
G1 X84.711 Y133.933 E55.43431
G1 X84.167 Y134.55 E55.46167
G1 X84.05 Y134.667 E55.46717
G1 X83.509 Y135.151 E55.49131
