;FLAVOR:Marlin
;TIME:4580
;Filament used: 2.32909m
;Layer height: 0.15
;MINX:69.7
;MINY:90.7
;MINZ:0.2
;MAXX:150.3
;MAXY:129.3
;MAXZ:15.95
;Generated with Cura_SteamEngine 4.2.1
M140 S60
M105
M190 S60
M104 S200
M105
M109 S200
M82 ;absolute extrusion mode
; -- START GCODE --
G21        ;metric values
G90        ;absolute positioning
M82        ;set extruder to absolute mode
M107       ;start with the fan off
G28 X0 Y0  ;move X/Y to min endstops
G28 Z0     ;move Z to min endstops
G1 Z1 F1000             ;move up slightly
G1 Y60.0 Z0 E9.0 F1000.0;intro line
G1 Y100.0 E21.5 F1000.0 ;continue line
G92 E0                  ;zero the extruded length again
G1 F80
;Put printing message on LCD screen
M117 Printing...
; -- end of START GCODE --
M141 S28
G92 E0
G92 E0
G1 F2700 E-5
;LAYER_COUNT:106
;LAYER:0
M107
G0 F3600 X72.688 Y92.455 Z0.2
;TYPE:SKIRT
G1 F2700 E0
G1 F1200 X73.324 Y91.988 E0.02624
G1 X74.004 Y91.587 E0.0525
G1 X74.722 Y91.257 E0.07878
G1 X75.469 Y91.002 E0.10504
G1 X76.238 Y90.823 E0.1313
G1 X77.022 Y90.723 E0.15758
G1 X77.617 Y90.7 E0.17739
G1 X80.132 Y90.7 E0.26104
G1 X80.921 Y90.74 E0.28731
G1 X81.701 Y90.859 E0.31356
G1 X82.466 Y91.057 E0.33984
G1 X83.206 Y91.331 E0.36608
G1 X83.915 Y91.679 E0.39235
G1 X84.586 Y92.097 E0.41865
G1 X85.21 Y92.58 E0.44489
G1 X85.783 Y93.123 E0.47115
G1 X86.298 Y93.722 E0.49742
G1 X86.358 Y93.808 E0.50091
G1 X87.022 Y93.723 E0.52317
G1 X87.614 Y93.7 E0.54288
G1 X132.38 Y93.685 E2.0318
G1 X133.169 Y93.725 E2.05808
G1 X133.656 Y93.799 E2.07446
G1 X133.806 Y93.593 E2.08294
G1 X134.333 Y93.005 E2.1092
G1 X134.917 Y92.474 E2.13545
G1 X135.552 Y92.004 E2.16173
G1 X136.231 Y91.601 E2.18799
G1 X136.947 Y91.268 E2.21425
G1 X137.693 Y91.01 E2.24051
G1 X138.462 Y90.828 E2.26679
G1 X139.245 Y90.725 E2.29306
G1 X139.869 Y90.7 E2.31383
G1 X142.383 Y90.7 E2.39745
G1 X143.172 Y90.74 E2.42372
G1 X143.952 Y90.859 E2.44997
G1 X144.717 Y91.057 E2.47625
G1 X145.457 Y91.331 E2.50249
G1 X146.166 Y91.679 E2.52876
G1 X146.837 Y92.097 E2.55506
G1 X147.461 Y92.58 E2.5813
G1 X147.898 Y92.985 E2.60112
G1 X148.015 Y93.102 E2.60662
G1 X148.545 Y93.688 E2.6329
G1 X149.012 Y94.324 E2.65914
G1 X149.413 Y95.004 E2.6854
G1 X149.743 Y95.722 E2.71168
G1 X149.998 Y96.469 E2.73794
G1 X150.177 Y97.238 E2.7642
G1 X150.277 Y98.022 E2.79048
G1 X150.3 Y98.617 E2.81029
G1 X150.3 Y121.383 E3.56749
G1 X150.26 Y122.172 E3.59377
G1 X150.141 Y122.952 E3.62001
G1 X149.943 Y123.717 E3.64629
G1 X149.669 Y124.457 E3.67254
G1 X149.321 Y125.166 E3.69881
G1 X148.903 Y125.837 E3.7251
G1 X148.42 Y126.461 E3.75134
G1 X148.015 Y126.898 E3.77116
G1 X147.898 Y127.015 E3.77666
G1 X147.312 Y127.545 E3.80294
G1 X146.676 Y128.012 E3.82919
G1 X145.996 Y128.413 E3.85544
G1 X145.278 Y128.743 E3.88173
G1 X144.531 Y128.998 E3.90798
G1 X143.762 Y129.177 E3.93424
G1 X142.978 Y129.277 E3.96053
G1 X142.383 Y129.3 E3.98033
G1 X139.868 Y129.3 E4.06398
G1 X139.079 Y129.26 E4.09026
G1 X138.299 Y129.141 E4.1165
G1 X137.534 Y128.943 E4.14278
G1 X136.794 Y128.669 E4.16903
G1 X136.085 Y128.321 E4.1953
G1 X135.414 Y127.903 E4.22159
G1 X134.79 Y127.42 E4.24784
G1 X134.217 Y126.877 E4.27409
G1 X133.702 Y126.278 E4.30037
G1 X133.642 Y126.192 E4.30385
G1 X132.978 Y126.277 E4.32612
G1 X132.383 Y126.3 E4.34592
G1 X87.617 Y126.3 E5.83485
G1 X86.828 Y126.26 E5.86112
G1 X86.36 Y126.189 E5.87687
G1 X86.203 Y126.405 E5.88575
G1 X85.676 Y126.993 E5.91201
G1 X85.092 Y127.524 E5.93826
G1 X84.458 Y127.995 E5.96453
G1 X83.779 Y128.398 E5.99079
G1 X83.063 Y128.731 E6.01706
G1 X82.317 Y128.99 E6.04332
G1 X81.548 Y129.171 E6.0696
G1 X80.765 Y129.275 E6.09587
G1 X80.138 Y129.3 E6.11674
G1 X77.617 Y129.3 E6.20059
G1 X76.828 Y129.26 E6.22687
G1 X76.048 Y129.141 E6.25311
G1 X75.283 Y128.943 E6.27939
G1 X74.543 Y128.669 E6.30564
G1 X73.834 Y128.321 E6.33191
G1 X73.163 Y127.903 E6.3582
G1 X72.539 Y127.42 E6.38444
G1 X72.102 Y127.015 E6.40426
G1 X71.985 Y126.898 E6.40976
G1 X71.455 Y126.312 E6.43604
G1 X70.988 Y125.676 E6.46229
G1 X70.587 Y124.996 E6.48854
G1 X70.257 Y124.278 E6.51483
G1 X70.002 Y123.531 E6.54108
G1 X69.823 Y122.762 E6.56734
G1 X69.723 Y121.978 E6.59363
G1 X69.7 Y121.383 E6.61343
G1 X69.7 Y98.617 E7.37063
G1 X69.74 Y97.828 E7.39691
G1 X69.859 Y97.048 E7.42315
G1 X70.057 Y96.283 E7.44943
G1 X70.331 Y95.543 E7.47568
G1 X70.679 Y94.834 E7.50195
G1 X71.097 Y94.163 E7.52824
G1 X71.58 Y93.539 E7.55449
G1 X71.985 Y93.102 E7.5743
G1 X72.102 Y92.985 E7.57981
G1 X72.688 Y92.455 E7.60609
G0 F3600 X72.956 Y92.753
G1 F1200 X73.578 Y92.3 E7.63168
G1 X74.243 Y91.914 E7.65725
G1 X74.945 Y91.599 E7.68285
G1 X75.676 Y91.359 E7.70844
G1 X76.427 Y91.196 E7.734
G1 X77.192 Y91.112 E7.75959
G1 X77.617 Y91.1 E7.77373
G1 X80.132 Y91.1 E7.85738
G1 X80.9 Y91.14 E7.88296
G1 X81.66 Y91.259 E7.90855
G1 X82.403 Y91.457 E7.93412
G1 X83.122 Y91.731 E7.95971
G1 X83.808 Y92.078 E7.98528
G1 X84.455 Y92.494 E8.01087
G1 X85.055 Y92.975 E8.03644
G1 X85.602 Y93.516 E8.06203
G1 X86.09 Y94.111 E8.08763
G1 X86.181 Y94.249 E8.09312
G1 X86.427 Y94.196 E8.10149
G1 X87.192 Y94.112 E8.12709
G1 X87.615 Y94.1 E8.14117
G1 X132.381 Y94.085 E9.63009
G1 X133.149 Y94.125 E9.65567
G1 X133.828 Y94.231 E9.67852
G1 X134.258 Y93.676 E9.70188
G1 X134.789 Y93.119 E9.72747
G1 X135.375 Y92.621 E9.75305
G1 X136.009 Y92.186 E9.77862
G1 X136.685 Y91.82 E9.80419
G1 X137.396 Y91.525 E9.82979
G1 X138.133 Y91.306 E9.85537
G1 X138.889 Y91.165 E9.88094
G1 X139.869 Y91.1 E9.91361
G1 X142.383 Y91.1 E9.99723
G1 X143.151 Y91.14 E10.0228
G1 X143.911 Y91.259 E10.04839
G1 X144.654 Y91.457 E10.07396
G1 X145.373 Y91.731 E10.09956
G1 X146.059 Y92.078 E10.12513
G1 X146.706 Y92.494 E10.15071
G1 X147.306 Y92.975 E10.17629
G1 X147.616 Y93.267 E10.19045
G1 X147.733 Y93.384 E10.19595
G1 X148.247 Y93.956 E10.22153
G1 X148.7 Y94.578 E10.24712
G1 X149.086 Y95.243 E10.2727
G1 X149.401 Y95.945 E10.29829
G1 X149.641 Y96.676 E10.32388
G1 X149.804 Y97.427 E10.34944
G1 X149.888 Y98.192 E10.37504
G1 X149.9 Y98.617 E10.38918
G1 X149.9 Y121.383 E11.14638
G1 X149.86 Y122.151 E11.17196
G1 X149.741 Y122.911 E11.19754
G1 X149.543 Y123.654 E11.22312
G1 X149.269 Y124.373 E11.24871
G1 X148.922 Y125.059 E11.27428
G1 X148.506 Y125.706 E11.29986
G1 X148.025 Y126.306 E11.32544
G1 X147.733 Y126.616 E11.3396
G1 X147.616 Y126.733 E11.34511
G1 X147.044 Y127.247 E11.37068
G1 X146.422 Y127.7 E11.39628
G1 X145.757 Y128.086 E11.42185
G1 X145.055 Y128.401 E11.44744
G1 X144.324 Y128.641 E11.47303
G1 X143.573 Y128.804 E11.49859
G1 X142.808 Y128.888 E11.52419
G1 X142.383 Y128.9 E11.53833
G1 X139.868 Y128.9 E11.62198
G1 X139.1 Y128.86 E11.64756
G1 X138.34 Y128.741 E11.67314
G1 X137.597 Y128.543 E11.69872
G1 X136.878 Y128.269 E11.72431
G1 X136.192 Y127.922 E11.74988
G1 X135.545 Y127.506 E11.77546
G1 X134.945 Y127.025 E11.80104
G1 X134.398 Y126.484 E11.82663
G1 X133.91 Y125.889 E11.85222
G1 X133.819 Y125.751 E11.85772
G1 X133.573 Y125.804 E11.86609
G1 X132.808 Y125.888 E11.89169
G1 X132.383 Y125.9 E11.90583
G1 X87.617 Y125.9 E13.39475
G1 X86.849 Y125.86 E13.42033
G1 X86.187 Y125.756 E13.44262
G1 X85.751 Y126.322 E13.46638
G1 X85.22 Y126.879 E13.49198
G1 X84.635 Y127.377 E13.51753
G1 X84 Y127.812 E13.54313
G1 X83.324 Y128.179 E13.56871
G1 X82.614 Y128.474 E13.59429
G1 X81.877 Y128.693 E13.61986
G1 X81.121 Y128.834 E13.64544
G1 X80.138 Y128.9 E13.6782
G1 X77.617 Y128.9 E13.76205
G1 X76.849 Y128.86 E13.78763
G1 X76.089 Y128.741 E13.81322
G1 X75.346 Y128.543 E13.83879
G1 X74.627 Y128.269 E13.86438
G1 X73.941 Y127.922 E13.88995
G1 X73.294 Y127.506 E13.91554
G1 X72.694 Y127.025 E13.94111
G1 X72.384 Y126.733 E13.95528
G1 X72.267 Y126.616 E13.96078
G1 X71.753 Y126.044 E13.98636
G1 X71.3 Y125.422 E14.01195
G1 X70.914 Y124.757 E14.03753
G1 X70.599 Y124.055 E14.06312
G1 X70.359 Y123.324 E14.08871
G1 X70.196 Y122.573 E14.11427
G1 X70.112 Y121.808 E14.13986
G1 X70.1 Y121.383 E14.15401
G1 X70.1 Y98.617 E14.91121
G1 X70.14 Y97.849 E14.93678
G1 X70.259 Y97.089 E14.96237
G1 X70.457 Y96.346 E14.98794
G1 X70.731 Y95.627 E15.01354
G1 X71.078 Y94.941 E15.03911
G1 X71.494 Y94.294 E15.06469
G1 X71.975 Y93.694 E15.09027
G1 X72.267 Y93.384 E15.10443
G1 X72.384 Y93.267 E15.10993
G1 X72.956 Y92.753 E15.13551
G0 F3600 X73.224 Y93.05
G1 F1200 X73.83 Y92.613 E15.16036
G1 X74.48 Y92.242 E15.18525
G1 X75.166 Y91.943 E15.21014
G1 X75.88 Y91.719 E15.23503
G1 X76.613 Y91.572 E15.2599
G1 X77.617 Y91.5 E15.29338
G1 X80.132 Y91.5 E15.37703
G1 X80.879 Y91.54 E15.40191
G1 X81.617 Y91.659 E15.42677
G1 X82.339 Y91.857 E15.45167
G1 X83.035 Y92.13 E15.47654
G1 X83.698 Y92.477 E15.50143
G1 X84.321 Y92.892 E15.52632
G1 X84.895 Y93.371 E15.55119
G1 X85.416 Y93.908 E15.57607
G1 X85.875 Y94.498 E15.60094
G1 X85.998 Y94.695 E15.60866
G1 X86.613 Y94.572 E15.62952
G1 X87.615 Y94.5 E15.66293
G1 X132.381 Y94.485 E17.15186
G1 X133.128 Y94.525 E17.17674
G1 X133.866 Y94.644 E17.2016
G1 X134.012 Y94.684 E17.20664
G1 X134.235 Y94.345 E17.22013
G1 X134.711 Y93.768 E17.24501
G1 X135.245 Y93.244 E17.26989
G1 X135.832 Y92.781 E17.29476
G1 X136.466 Y92.383 E17.31966
G1 X137.138 Y92.055 E17.34453
G1 X137.841 Y91.8 E17.3694
G1 X138.568 Y91.622 E17.3943
G1 X139.309 Y91.522 E17.41916
G1 X139.869 Y91.5 E17.4378
G1 X142.383 Y91.5 E17.52142
G1 X143.13 Y91.54 E17.5463
G1 X143.868 Y91.659 E17.57116
G1 X144.59 Y91.857 E17.59606
G1 X145.286 Y92.13 E17.62093
G1 X145.949 Y92.477 E17.64582
G1 X146.572 Y92.892 E17.67072
G1 X147.333 Y93.55 E17.70418
G1 X147.45 Y93.667 E17.70968
G1 X147.95 Y94.224 E17.73458
G1 X148.387 Y94.83 E17.75943
G1 X148.758 Y95.48 E17.78432
G1 X149.057 Y96.166 E17.80921
G1 X149.281 Y96.88 E17.8341
G1 X149.428 Y97.613 E17.85896
G1 X149.5 Y98.617 E17.89244
G1 X149.5 Y121.383 E18.64964
G1 X149.46 Y122.13 E18.67452
G1 X149.341 Y122.868 E18.69939
G1 X149.143 Y123.59 E18.72429
G1 X148.87 Y124.286 E18.74915
G1 X148.523 Y124.949 E18.77404
G1 X148.108 Y125.572 E18.79894
G1 X147.45 Y126.333 E18.8324
G1 X147.333 Y126.45 E18.8379
G1 X146.776 Y126.95 E18.8628
G1 X146.17 Y127.387 E18.88765
G1 X145.52 Y127.758 E18.91254
G1 X144.834 Y128.057 E18.93743
G1 X144.12 Y128.281 E18.96232
G1 X143.387 Y128.428 E18.98718
G1 X142.383 Y128.5 E19.02066
G1 X139.868 Y128.5 E19.10431
G1 X139.121 Y128.46 E19.12919
G1 X138.383 Y128.341 E19.15406
G1 X137.661 Y128.143 E19.17896
G1 X136.965 Y127.87 E19.20382
G1 X136.302 Y127.523 E19.22871
G1 X135.679 Y127.108 E19.25361
G1 X135.105 Y126.629 E19.27847
G1 X134.584 Y126.092 E19.30336
G1 X134.125 Y125.502 E19.32822
G1 X134.002 Y125.305 E19.33595
G1 X133.387 Y125.428 E19.35681
G1 X132.383 Y125.5 E19.39029
G1 X87.617 Y125.5 E20.87921
G1 X86.87 Y125.46 E20.90409
G1 X86.132 Y125.341 E20.92895
G1 X86.001 Y125.305 E20.93347
G1 X85.773 Y125.652 E20.94728
G1 X85.298 Y126.23 E20.97216
G1 X84.764 Y126.754 E20.99705
G1 X84.177 Y127.217 E21.02191
G1 X83.544 Y127.616 E21.0468
G1 X82.871 Y127.944 E21.0717
G1 X82.168 Y128.199 E21.09658
G1 X81.442 Y128.378 E21.12145
G1 X80.7 Y128.477 E21.14634
G1 X80.138 Y128.5 E21.16505
G1 X77.617 Y128.5 E21.2489
G1 X76.87 Y128.46 E21.27378
G1 X76.132 Y128.341 E21.29864
G1 X75.41 Y128.143 E21.32354
G1 X74.714 Y127.87 E21.34841
G1 X74.051 Y127.523 E21.3733
G1 X73.428 Y127.108 E21.3982
G1 X72.667 Y126.45 E21.43166
G1 X72.55 Y126.333 E21.43716
G1 X72.05 Y125.776 E21.46206
G1 X71.613 Y125.17 E21.48691
G1 X71.242 Y124.52 E21.5118
G1 X70.943 Y123.834 E21.53669
G1 X70.719 Y123.12 E21.56158
G1 X70.572 Y122.387 E21.58644
G1 X70.5 Y121.383 E21.61992
G1 X70.5 Y98.617 E22.37712
G1 X70.54 Y97.87 E22.402
G1 X70.659 Y97.132 E22.42686
G1 X70.857 Y96.41 E22.45177
G1 X71.13 Y95.714 E22.47663
G1 X71.477 Y95.051 E22.50152
G1 X71.892 Y94.428 E22.52642
G1 X72.55 Y93.667 E22.55988
G1 X72.667 Y93.55 E22.56538
G1 X73.224 Y93.05 E22.59028
G0 F3600 X73.491 Y93.349
G1 F1200 X74.082 Y92.926 E22.61445
G1 X74.716 Y92.572 E22.6386
G1 X75.385 Y92.289 E22.66276
G1 X76.081 Y92.081 E22.68692
G1 X76.796 Y91.951 E22.71109
G1 X77.617 Y91.9 E22.73845
G1 X80.132 Y91.9 E22.8221
G1 X80.857 Y91.94 E22.84625
G1 X81.574 Y92.059 E22.87043
G1 X82.273 Y92.257 E22.89459
G1 X82.946 Y92.53 E22.91874
G1 X83.585 Y92.875 E22.9429
G1 X84.182 Y93.289 E22.96706
G1 X84.73 Y93.765 E22.9912
G1 X85.223 Y94.299 E23.01538
G1 X85.653 Y94.884 E23.03952
G1 X85.813 Y95.161 E23.05016
G1 X86.081 Y95.081 E23.05947
G1 X86.796 Y94.951 E23.08364
G1 X87.615 Y94.9 E23.11093
G1 X132.381 Y94.885 E24.59985
G1 X133.106 Y94.925 E24.624
G1 X133.823 Y95.044 E24.64818
G1 X134.191 Y95.148 E24.6609
G1 X134.267 Y95.01 E24.66614
G1 X134.685 Y94.415 E24.69032
G1 X135.165 Y93.87 E24.71448
G1 X135.702 Y93.381 E24.73863
G1 X136.29 Y92.955 E24.76278
G1 X136.921 Y92.595 E24.78694
G1 X137.588 Y92.307 E24.81111
G1 X138.282 Y92.094 E24.83525
G1 X138.996 Y91.958 E24.85943
G1 X139.869 Y91.9 E24.88853
G1 X142.383 Y91.9 E24.97215
G1 X143.108 Y91.94 E24.9963
G1 X143.825 Y92.059 E25.02047
G1 X144.524 Y92.257 E25.04463
G1 X145.197 Y92.53 E25.06879
G1 X145.836 Y92.875 E25.09294
G1 X146.433 Y93.289 E25.1171
G1 X147.05 Y93.833 E25.14446
G1 X147.167 Y93.95 E25.14997
G1 X147.651 Y94.491 E25.17411
G1 X148.074 Y95.082 E25.19828
G1 X148.428 Y95.716 E25.22243
G1 X148.711 Y96.385 E25.24659
G1 X148.919 Y97.081 E25.27076
G1 X149.049 Y97.796 E25.29493
G1 X149.1 Y98.617 E25.32229
G1 X149.1 Y121.383 E26.07949
G1 X149.06 Y122.108 E26.10364
G1 X148.941 Y122.825 E26.12781
G1 X148.743 Y123.524 E26.15197
G1 X148.47 Y124.197 E26.17613
G1 X148.125 Y124.836 E26.20028
G1 X147.711 Y125.433 E26.22445
G1 X147.167 Y126.05 E26.2518
G1 X147.05 Y126.167 E26.25731
G1 X146.509 Y126.651 E26.28145
G1 X145.918 Y127.074 E26.30562
G1 X145.284 Y127.428 E26.32978
G1 X144.615 Y127.711 E26.35394
G1 X143.919 Y127.919 E26.3781
G1 X143.204 Y128.049 E26.40227
G1 X142.383 Y128.1 E26.42963
G1 X139.868 Y128.1 E26.51328
G1 X139.143 Y128.06 E26.53743
G1 X138.426 Y127.941 E26.5616
G1 X137.727 Y127.743 E26.58576
G1 X137.054 Y127.47 E26.60992
G1 X136.415 Y127.125 E26.63407
G1 X135.818 Y126.711 E26.65824
G1 X135.27 Y126.235 E26.68238
G1 X134.777 Y125.701 E26.70655
G1 X134.347 Y125.116 E26.7307
G1 X134.187 Y124.839 E26.74134
G1 X133.919 Y124.919 E26.75064
G1 X133.204 Y125.049 E26.77481
G1 X132.383 Y125.1 E26.80217
G1 X87.617 Y125.1 E28.29109
G1 X86.892 Y125.06 E28.31524
G1 X86.175 Y124.941 E28.33942
G1 X85.822 Y124.841 E28.35162
G1 X85.741 Y124.988 E28.3572
G1 X85.324 Y125.583 E28.38137
G1 X84.844 Y126.128 E28.40552
G1 X84.307 Y126.617 E28.42968
G1 X83.719 Y127.044 E28.45385
G1 X83.088 Y127.404 E28.47801
G1 X82.421 Y127.692 E28.50218
G1 X81.727 Y127.906 E28.52633
G1 X81.014 Y128.042 E28.55047
G1 X80.138 Y128.1 E28.57967
G1 X77.617 Y128.1 E28.66352
G1 X76.892 Y128.06 E28.68767
G1 X76.175 Y127.941 E28.71185
G1 X75.476 Y127.743 E28.73601
G1 X74.803 Y127.47 E28.76017
G1 X74.164 Y127.125 E28.78432
G1 X73.567 Y126.711 E28.80848
G1 X72.95 Y126.167 E28.83584
G1 X72.833 Y126.05 E28.84134
G1 X72.349 Y125.509 E28.86549
G1 X71.926 Y124.918 E28.88966
G1 X71.572 Y124.284 E28.91381
G1 X71.289 Y123.615 E28.93797
G1 X71.081 Y122.919 E28.96213
G1 X70.951 Y122.204 E28.9863
G1 X70.9 Y121.383 E29.01366
G1 X70.9 Y98.617 E29.77086
G1 X70.94 Y97.892 E29.79501
G1 X71.059 Y97.175 E29.81919
G1 X71.257 Y96.476 E29.84335
G1 X71.53 Y95.803 E29.86751
G1 X71.875 Y95.164 E29.89166
G1 X72.289 Y94.567 E29.91582
G1 X72.833 Y93.95 E29.94318
G1 X72.95 Y93.833 E29.94868
G1 X73.491 Y93.349 E29.97283
G0 F3600 X73.758 Y93.647
G1 F1200 X74.333 Y93.241 E29.99624
G1 X74.951 Y92.903 E30.01967
G1 X75.602 Y92.636 E30.04307
G1 X76.28 Y92.446 E30.06649
G1 X76.975 Y92.333 E30.08991
G1 X77.617 Y92.3 E30.11129
G1 X80.132 Y92.3 E30.19494
G1 X80.835 Y92.34 E30.21836
G1 X81.529 Y92.459 E30.24178
G1 X82.204 Y92.657 E30.26518
G1 X82.853 Y92.929 E30.28858
G1 X83.467 Y93.274 E30.31201
G1 X84.038 Y93.685 E30.3354
G1 X84.559 Y94.159 E30.35883
G1 X85.023 Y94.689 E30.38226
G1 X85.423 Y95.268 E30.40567
G1 X85.617 Y95.632 E30.41939
G1 X86.28 Y95.446 E30.44229
G1 X86.975 Y95.333 E30.46571
G1 X87.615 Y95.3 E30.48702
G1 X132.381 Y95.285 E31.97595
G1 X133.084 Y95.325 E31.99937
G1 X133.778 Y95.444 E32.02278
G1 X134.382 Y95.62 E32.04371
G1 X134.713 Y95.057 E32.06543
G1 X135.136 Y94.495 E32.08883
G1 X135.621 Y93.984 E32.11226
G1 X136.16 Y93.532 E32.13566
G1 X136.747 Y93.143 E32.15908
G1 X137.375 Y92.824 E32.1825
