;FLAVOR:UltiGCode
;TIME:9880
;MATERIAL:13953
;MATERIAL2:0
;NOZZLE_DIAMETER:0.4
;MINX:38.2
;MINY:83.7
;MINZ:0.3
;MAXX:184.8
;MAXY:139.3
;MAXZ:32
;Generated with Cura_SteamEngine 4.2.1
M82 ;absolute extrusion mode

G92 E0
G92 E0
G10
;LAYER_COUNT:318
;LAYER:0
M107
G0 F3600 X73.222 Y85.334 Z0.3
;TYPE:SKIRT
G11
G1 F1800 X73.87 Y84.883 E0.09474
G1 X74.561 Y84.499 E0.1896
G1 X75.286 Y84.187 E0.28432
G1 X76.039 Y83.95 E0.37905
G1 X76.813 Y83.791 E0.47387
G1 X77.598 Y83.71 E0.56857
G1 X78 Y83.7 E0.61682
G1 X160 Y83.7 E10.45682
G1 X160.789 Y83.74 E10.55162
G1 X161.569 Y83.859 E10.64631
G1 X162.334 Y84.057 E10.74113
G1 X163.074 Y84.331 E10.83582
G1 X163.783 Y84.679 E10.9306
G1 X164.454 Y85.097 E11.02546
G1 X165.078 Y85.58 E11.12016
G1 X165.651 Y86.123 E11.21489
G1 X166.166 Y86.722 E11.30968
G1 X166.617 Y87.37 E11.40442
G1 X167.001 Y88.061 E11.49928
G1 X167.313 Y88.786 E11.594
G1 X167.55 Y89.539 E11.68873
G1 X167.709 Y90.313 E11.78355
G1 X167.79 Y91.098 E11.87825
G1 X167.8 Y91.5 E11.9265
G1 X167.8 Y120.7 E15.4305
G1 X177 Y120.7 E16.5345
G1 X177.789 Y120.74 E16.6293
G1 X178.569 Y120.859 E16.72399
G1 X179.334 Y121.057 E16.81881
G1 X180.074 Y121.331 E16.9135
G1 X180.783 Y121.679 E17.00828
G1 X181.454 Y122.097 E17.10315
G1 X182.078 Y122.58 E17.19784
G1 X182.651 Y123.123 E17.29257
G1 X183.166 Y123.722 E17.38736
G1 X183.617 Y124.37 E17.4821
G1 X184.001 Y125.061 E17.57696
G1 X184.313 Y125.786 E17.67168
G1 X184.55 Y126.539 E17.76641
G1 X184.709 Y127.313 E17.86123
G1 X184.79 Y128.098 E17.95593
G1 X184.8 Y128.5 E18.00418
G1 X184.8 Y131.485 E18.36238
G1 X184.76 Y132.274 E18.45718
G1 X184.641 Y133.054 E18.55187
G1 X184.443 Y133.819 E18.64669
G1 X184.169 Y134.559 E18.74138
G1 X183.821 Y135.268 E18.83616
G1 X183.403 Y135.939 E18.93103
G1 X182.92 Y136.563 E19.02572
G1 X182.377 Y137.136 E19.12045
G1 X181.778 Y137.651 E19.21524
G1 X181.13 Y138.102 E19.30998
G1 X180.439 Y138.486 E19.40484
G1 X179.714 Y138.798 E19.49956
G1 X178.961 Y139.035 E19.59429
G1 X178.187 Y139.194 E19.68911
G1 X177.402 Y139.275 E19.78381
G1 X177.006 Y139.285 E19.83134
G1 X157.006 Y139.3 E22.23134
G1 X156.217 Y139.261 E22.32614
G1 X155.436 Y139.142 E22.42094
G1 X154.672 Y138.944 E22.51565
G1 X153.931 Y138.671 E22.61041
G1 X153.222 Y138.324 E22.70514
G1 X152.551 Y137.907 E22.79994
G1 X151.926 Y137.424 E22.89472
G1 X151.353 Y136.881 E22.98945
G1 X150.838 Y136.282 E23.08425
G1 X150.386 Y135.635 E23.17896
G1 X150.002 Y134.945 E23.27372
G1 X149.689 Y134.219 E23.36859
G1 X149.452 Y133.466 E23.46332
G1 X149.292 Y132.693 E23.55804
G1 X149.211 Y131.908 E23.65274
G1 X149.2 Y131.5 E23.70172
G1 X149.2 Y102.3 E27.20572
G1 X88.8 Y102.3 E34.45372
G1 X88.8 Y131.5 E37.95772
G1 X88.76 Y132.289 E38.05252
G1 X88.641 Y133.069 E38.14721
G1 X88.443 Y133.834 E38.24203
G1 X88.169 Y134.574 E38.33672
G1 X87.821 Y135.283 E38.4315
G1 X87.403 Y135.954 E38.52637
G1 X86.92 Y136.578 E38.62106
G1 X86.377 Y137.151 E38.71579
G1 X85.778 Y137.666 E38.81058
G1 X85.13 Y138.117 E38.90532
G1 X84.439 Y138.501 E39.00018
G1 X83.714 Y138.813 E39.0949
G1 X82.961 Y139.05 E39.18963
G1 X82.187 Y139.209 E39.28445
G1 X81.402 Y139.29 E39.37915
G1 X81 Y139.3 E39.4274
G1 X46 Y139.3 E43.6274
G1 X45.211 Y139.26 E43.7222
G1 X44.431 Y139.141 E43.81689
G1 X43.666 Y138.943 E43.91171
G1 X42.926 Y138.669 E44.0064
G1 X42.217 Y138.321 E44.10118
G1 X41.546 Y137.903 E44.19605
G1 X40.922 Y137.42 E44.29074
G1 X40.349 Y136.877 E44.38547
G1 X39.834 Y136.278 E44.48026
G1 X39.383 Y135.63 E44.575
G1 X38.999 Y134.939 E44.66986
G1 X38.687 Y134.214 E44.76458
G1 X38.45 Y133.461 E44.85931
G1 X38.291 Y132.687 E44.95413
G1 X38.21 Y131.902 E45.04883
G1 X38.2 Y131.5 E45.09708
G1 X38.2 Y128.515 E45.45528
G1 X38.24 Y127.726 E45.55008
G1 X38.359 Y126.946 E45.64477
G1 X38.557 Y126.181 E45.73959
G1 X38.831 Y125.441 E45.83428
G1 X39.179 Y124.732 E45.92906
G1 X39.597 Y124.061 E46.02393
G1 X40.08 Y123.437 E46.11862
G1 X40.623 Y122.864 E46.21335
G1 X41.222 Y122.349 E46.30814
G1 X41.87 Y121.898 E46.40288
G1 X42.561 Y121.514 E46.49774
G1 X43.286 Y121.202 E46.59246
G1 X44.039 Y120.965 E46.68719
G1 X44.813 Y120.806 E46.78201
G1 X45.598 Y120.725 E46.87671
G1 X45.996 Y120.715 E46.92448
G1 X70.2 Y120.704 E49.82896
G1 X70.2 Y91.5 E53.33344
G1 X70.24 Y90.711 E53.42824
G1 X70.359 Y89.931 E53.52293
G1 X70.557 Y89.166 E53.61775
G1 X70.831 Y88.426 E53.71244
G1 X71.179 Y87.717 E53.80722
G1 X71.597 Y87.046 E53.90209
G1 X72.08 Y86.422 E53.99678
G1 X72.623 Y85.849 E54.09151
G1 X73.222 Y85.334 E54.1863
G0 F3600 X73.611 Y85.542
G1 F1800 X74.253 Y85.119 E54.27856
G1 X74.936 Y84.764 E54.37093
G1 X75.651 Y84.483 E54.46312
G1 X76.393 Y84.277 E54.55553
G1 X77.151 Y84.149 E54.64777
G1 X78 Y84.1 E54.74982
G1 X160 Y84.1 E64.58982
G1 X160.768 Y84.14 E64.68211
G1 X161.528 Y84.259 E64.77442
G1 X162.271 Y84.457 E64.86669
G1 X162.99 Y84.731 E64.95902
G1 X163.676 Y85.078 E65.05128
G1 X164.323 Y85.494 E65.14358
G1 X164.923 Y85.975 E65.23586
G1 X165.47 Y86.516 E65.32818
G1 X165.958 Y87.111 E65.42052
G1 X166.381 Y87.753 E65.51278
G1 X166.736 Y88.436 E65.60515
G1 X167.017 Y89.151 E65.69734
G1 X167.223 Y89.893 E65.78975
G1 X167.351 Y90.651 E65.882
G1 X167.4 Y91.5 E65.98405
G1 X167.4 Y121.1 E69.53605
G1 X177 Y121.1 E70.68805
G1 X177.768 Y121.14 E70.78033
G1 X178.528 Y121.259 E70.87264
G1 X179.271 Y121.457 E70.96491
G1 X179.99 Y121.731 E71.05725
G1 X180.676 Y122.078 E71.1495
G1 X181.323 Y122.494 E71.2418
G1 X181.923 Y122.975 E71.33408
G1 X182.47 Y123.516 E71.4264
G1 X182.958 Y124.111 E71.51875
G1 X183.381 Y124.753 E71.61101
G1 X183.736 Y125.436 E71.70338
G1 X184.017 Y126.151 E71.79556
G1 X184.223 Y126.893 E71.88797
G1 X184.351 Y127.651 E71.98022
G1 X184.4 Y128.5 E72.08227
G1 X184.4 Y131.485 E72.44047
G1 X184.36 Y132.253 E72.53275
G1 X184.241 Y133.013 E72.62507
G1 X184.043 Y133.756 E72.71734
G1 X183.769 Y134.475 E72.80967
G1 X183.422 Y135.161 E72.90192
G1 X183.006 Y135.808 E72.99423
G1 X182.525 Y136.408 E73.08651
G1 X181.984 Y136.955 E73.17883
G1 X181.389 Y137.443 E73.27117
G1 X180.747 Y137.866 E73.36343
G1 X180.064 Y138.221 E73.4558
G1 X179.349 Y138.502 E73.54799
G1 X178.607 Y138.708 E73.6404
G1 X177.849 Y138.836 E73.73264
G1 X177.006 Y138.885 E73.83397
G1 X157.006 Y138.9 E76.23397
G1 X156.237 Y138.861 E76.32637
G1 X155.477 Y138.742 E76.41868
G1 X154.734 Y138.545 E76.51093
G1 X154.015 Y138.271 E76.60326
G1 X153.328 Y137.925 E76.69556
G1 X152.681 Y137.509 E76.78787
G1 X152.081 Y137.028 E76.88015
G1 X151.534 Y136.488 E76.97238
G1 X151.045 Y135.893 E77.0648
G1 X150.622 Y135.252 E77.15696
G1 X150.267 Y134.569 E77.24933
G1 X149.984 Y133.854 E77.34161
G1 X149.778 Y133.113 E77.4339
G1 X149.65 Y132.355 E77.52615
G1 X149.6 Y131.5 E77.62892
G1 X149.6 Y101.9 E81.18092
G1 X88.4 Y101.9 E88.52492
G1 X88.4 Y131.5 E92.07692
G1 X88.36 Y132.268 E92.16921
G1 X88.241 Y133.028 E92.26152
G1 X88.043 Y133.771 E92.35379
G1 X87.769 Y134.49 E92.44612
G1 X87.422 Y135.176 E92.53838
G1 X87.006 Y135.823 E92.63068
G1 X86.525 Y136.423 E92.72296
G1 X85.984 Y136.97 E92.81528
G1 X85.389 Y137.458 E92.90762
G1 X84.747 Y137.881 E92.99988
G1 X84.064 Y138.236 E93.09225
G1 X83.349 Y138.517 E93.18444
G1 X82.607 Y138.723 E93.27685
G1 X81.849 Y138.851 E93.3691
G1 X81 Y138.9 E93.47115
G1 X46 Y138.9 E97.67115
G1 X45.232 Y138.86 E97.76343
G1 X44.472 Y138.741 E97.85574
G1 X43.729 Y138.543 E97.94801
G1 X43.01 Y138.269 E98.04035
G1 X42.324 Y137.922 E98.1326
G1 X41.677 Y137.506 E98.2249
G1 X41.077 Y137.025 E98.31718
G1 X40.53 Y136.484 E98.4095
G1 X40.042 Y135.889 E98.50185
G1 X39.619 Y135.247 E98.59411
G1 X39.264 Y134.564 E98.68648
G1 X38.983 Y133.849 E98.77866
G1 X38.777 Y133.107 E98.87107
G1 X38.649 Y132.349 E98.96332
G1 X38.6 Y131.5 E99.06537
G1 X38.6 Y128.515 E99.42357
G1 X38.64 Y127.747 E99.51585
G1 X38.759 Y126.987 E99.60817
G1 X38.957 Y126.244 E99.70044
G1 X39.231 Y125.525 E99.79277
G1 X39.578 Y124.839 E99.88502
G1 X39.994 Y124.192 E99.97733
G1 X40.475 Y123.592 E100.06961
G1 X41.016 Y123.045 E100.16193
G1 X41.611 Y122.557 E100.25427
G1 X42.253 Y122.134 E100.34653
G1 X42.936 Y121.779 E100.4389
G1 X43.651 Y121.498 E100.53109
G1 X44.393 Y121.292 E100.6235
G1 X45.151 Y121.164 E100.71574
G1 X45.997 Y121.115 E100.81743
G1 X70.6 Y121.103 E103.76979
G1 X70.6 Y91.5 E107.32215
G1 X70.64 Y90.732 E107.41444
G1 X70.759 Y89.972 E107.50675
G1 X70.957 Y89.229 E107.59902
G1 X71.231 Y88.51 E107.69135
G1 X71.578 Y87.824 E107.78361
G1 X71.994 Y87.177 E107.87591
G1 X72.475 Y86.577 E107.96819
G1 X73.016 Y86.03 E108.06051
G1 X73.611 Y85.542 E108.15285
G0 F3600 X73.998 Y85.757
G1 F1800 X74.634 Y85.362 E108.2427
G1 X75.308 Y85.038 E108.33244
G1 X76.013 Y84.788 E108.4222
G1 X76.741 Y84.614 E108.51202
G1 X77.483 Y84.519 E108.60178
G1 X78 Y84.5 E108.66387
G1 X160 Y84.5 E118.50387
G1 X160.747 Y84.54 E118.59364
G1 X161.485 Y84.659 E118.68334
G1 X162.207 Y84.857 E118.77318
G1 X162.903 Y85.13 E118.86289
G1 X163.566 Y85.477 E118.95269
G1 X164.189 Y85.892 E119.04252
G1 X164.763 Y86.371 E119.13223
G1 X165.284 Y86.908 E119.22202
G1 X165.743 Y87.498 E119.31172
G1 X166.138 Y88.134 E119.40156
G1 X166.462 Y88.808 E119.4913
G1 X166.712 Y89.513 E119.58106
G1 X166.886 Y90.241 E119.67088
G1 X166.981 Y90.983 E119.76065
G1 X167 Y91.5 E119.82273
G1 X167 Y121.5 E123.42273
G1 X177 Y121.5 E124.62273
G1 X177.747 Y121.54 E124.7125
G1 X178.485 Y121.659 E124.8022
G1 X179.207 Y121.857 E124.89204
G1 X179.903 Y122.13 E124.98176
G1 X180.566 Y122.477 E125.07156
G1 X181.189 Y122.892 E125.16138
G1 X181.763 Y123.371 E125.2511
G1 X182.284 Y123.908 E125.34088
G1 X182.743 Y124.498 E125.43058
G1 X183.138 Y125.134 E125.52042
G1 X183.462 Y125.808 E125.61016
G1 X183.712 Y126.513 E125.69993
G1 X183.886 Y127.241 E125.78975
G1 X183.981 Y127.983 E125.87951
G1 X184 Y128.5 E125.9416
G1 X184 Y131.485 E126.2998
G1 X183.96 Y132.232 E126.38956
G1 X183.841 Y132.97 E126.47927
G1 X183.643 Y133.692 E126.56911
G1 X183.37 Y134.388 E126.65882
G1 X183.023 Y135.051 E126.74862
G1 X182.608 Y135.674 E126.83845
G1 X182.129 Y136.248 E126.92816
G1 X181.592 Y136.769 E127.01795
G1 X181.002 Y137.228 E127.10765
G1 X180.366 Y137.623 E127.19749
G1 X179.692 Y137.947 E127.28723
G1 X178.987 Y138.197 E127.37699
G1 X178.259 Y138.371 E127.46681
G1 X177.517 Y138.466 E127.55658
G1 X177.005 Y138.485 E127.61806
G1 X157.005 Y138.5 E130.01806
G1 X156.258 Y138.461 E130.10782
G1 X155.52 Y138.342 E130.19753
G1 X154.798 Y138.145 E130.28733
G1 X154.102 Y137.872 E130.37705
G1 X153.438 Y137.526 E130.4669
G1 X152.815 Y137.112 E130.55666
G1 X152.24 Y136.633 E130.64646
G1 X151.72 Y136.096 E130.73617
G1 X151.26 Y135.506 E130.82594
G1 X150.865 Y134.871 E130.91568
G1 X150.54 Y134.197 E131.00547
G1 X150.289 Y133.492 E131.09527
G1 X150.115 Y132.764 E131.1851
G1 X150.02 Y132.022 E131.27486
G1 X150 Y131.5 E131.33755
G1 X150 Y101.5 E134.93755
G1 X88 Y101.5 E142.37755
G1 X88 Y131.5 E145.97755
G1 X87.96 Y132.247 E146.06732
G1 X87.841 Y132.985 E146.15702
G1 X87.643 Y133.707 E146.24686
G1 X87.37 Y134.403 E146.33657
G1 X87.023 Y135.066 E146.42637
G1 X86.608 Y135.689 E146.5162
G1 X86.129 Y136.263 E146.60591
G1 X85.592 Y136.784 E146.6957
G1 X85.002 Y137.243 E146.7854
G1 X84.366 Y137.638 E146.87524
G1 X83.692 Y137.962 E146.96498
G1 X82.987 Y138.212 E147.05474
G1 X82.259 Y138.386 E147.14456
G1 X81.517 Y138.481 E147.23433
G1 X81 Y138.5 E147.29641
G1 X46 Y138.5 E151.49641
G1 X45.253 Y138.46 E151.58618
G1 X44.515 Y138.341 E151.67588
G1 X43.793 Y138.143 E151.76572
G1 X43.097 Y137.87 E151.85544
G1 X42.434 Y137.523 E151.94524
G1 X41.811 Y137.108 E152.03506
G1 X41.237 Y136.629 E152.12478
G1 X40.716 Y136.092 E152.21456
G1 X40.257 Y135.502 E152.30426
G1 X39.862 Y134.866 E152.39411
G1 X39.538 Y134.192 E152.48385
G1 X39.288 Y133.487 E152.57361
G1 X39.114 Y132.759 E152.66343
G1 X39.019 Y132.017 E152.75319
G1 X39 Y131.5 E152.81528
G1 X39 Y128.515 E153.17348
G1 X39.04 Y127.768 E153.26325
G1 X39.159 Y127.03 E153.35295
G1 X39.357 Y126.308 E153.44279
G1 X39.63 Y125.612 E153.5325
G1 X39.977 Y124.949 E153.6223
G1 X40.392 Y124.326 E153.71213
G1 X40.871 Y123.752 E153.80184
G1 X41.408 Y123.231 E153.89163
G1 X41.998 Y122.772 E153.98133
G1 X42.634 Y122.377 E154.07117
G1 X43.308 Y122.053 E154.16091
G1 X44.013 Y121.803 E154.25067
G1 X44.741 Y121.629 E154.34049
G1 X45.483 Y121.534 E154.43026
G1 X45.997 Y121.515 E154.49198
G1 X71 Y121.503 E157.49234
G1 X71 Y91.5 E161.0927
G1 X71.04 Y90.753 E161.18247
G1 X71.159 Y90.015 E161.27217
G1 X71.357 Y89.293 E161.36201
G1 X71.63 Y88.597 E161.45173
G1 X71.977 Y87.934 E161.54153
G1 X72.392 Y87.311 E161.63135
G1 X72.871 Y86.737 E161.72107
G1 X73.408 Y86.216 E161.81085
G1 X73.998 Y85.757 E161.90055
G0 F3600 X73.799 Y86.409
G1 F1800 X74.384 Y85.979 E161.98768
G1 X75.013 Y85.615 E162.07489
G1 X75.678 Y85.322 E162.16209
G1 X76.371 Y85.104 E162.24927
G1 X77.083 Y84.964 E162.33634
G1 X78 Y84.9 E162.44665
G1 X160 Y84.9 E172.28665
G1 X160.725 Y84.94 E172.37378
G1 X161.442 Y85.059 E172.461
G1 X162.141 Y85.257 E172.54818
G1 X162.814 Y85.53 E172.63533
G1 X163.453 Y85.875 E172.72247
G1 X164.05 Y86.289 E172.80965
G1 X164.598 Y86.765 E172.89676
G1 X165.091 Y87.299 E172.98397
G1 X165.521 Y87.884 E173.07109
G1 X165.885 Y88.513 E173.1583
G1 X166.178 Y89.178 E173.2455
G1 X166.396 Y89.871 E173.33268
G1 X166.536 Y90.583 E173.41976
G1 X166.6 Y91.5 E173.53007
G1 X166.6 Y121.9 E177.17807
G1 X177 Y121.9 E178.42607
G1 X177.725 Y121.94 E178.5132
G1 X178.442 Y122.059 E178.60041
G1 X179.141 Y122.257 E178.68759
G1 X179.814 Y122.53 E178.77475
G1 X180.453 Y122.875 E178.86189
G1 X181.05 Y123.289 E178.94907
G1 X181.598 Y123.765 E179.03617
G1 X182.091 Y124.299 E179.12339
G1 X182.521 Y124.884 E179.21051
G1 X182.885 Y125.513 E179.29772
G1 X183.178 Y126.178 E179.38492
G1 X183.396 Y126.871 E179.4721
G1 X183.536 Y127.583 E179.55917
G1 X183.6 Y128.5 E179.66948
G1 X183.6 Y131.485 E180.02768
G1 X183.56 Y132.21 E180.11481
G1 X183.441 Y132.927 E180.20203
G1 X183.243 Y133.626 E180.28921
G1 X182.97 Y134.299 E180.37636
G1 X182.625 Y134.938 E180.4635
G1 X182.211 Y135.535 E180.55068
G1 X181.735 Y136.083 E180.63779
G1 X181.201 Y136.576 E180.725
G1 X180.616 Y137.006 E180.81213
G1 X179.987 Y137.37 E180.89933
G1 X179.322 Y137.663 E180.98654
G1 X178.629 Y137.881 E181.07371
G1 X177.917 Y138.021 E181.16079
G1 X177.005 Y138.085 E181.2705
G1 X157.005 Y138.1 E183.6705
G1 X156.28 Y138.061 E183.75763
G1 X155.563 Y137.942 E183.84484
G1 X154.864 Y137.745 E183.93199
G1 X154.191 Y137.472 E184.01914
G1 X153.551 Y137.127 E184.10639
G1 X152.954 Y136.714 E184.1935
G1 X152.405 Y136.238 E184.2807
G1 X151.913 Y135.705 E184.36774
G1 X151.481 Y135.12 E184.45501
G1 X151.117 Y134.492 E184.54211
G1 X150.824 Y133.827 E184.62931
G1 X150.606 Y133.134 E184.71649
G1 X150.465 Y132.422 E184.80359
G1 X150.4 Y131.5 E184.9145
G1 X150.4 Y101.1 E188.5625
G1 X87.6 Y101.1 E196.0985
G1 X87.6 Y131.5 E199.7465
G1 X87.56 Y132.225 E199.83364
G1 X87.441 Y132.942 E199.92085
G1 X87.243 Y133.641 E200.00803
G1 X86.97 Y134.314 E200.09518
G1 X86.625 Y134.953 E200.18233
G1 X86.211 Y135.55 E200.26951
G1 X85.735 Y136.098 E200.35661
G1 X85.201 Y136.591 E200.44382
G1 X84.616 Y137.021 E200.53095
G1 X83.987 Y137.385 E200.61816
G1 X83.322 Y137.678 E200.70536
G1 X82.629 Y137.896 E200.79254
G1 X81.917 Y138.036 E200.87961
G1 X81 Y138.1 E200.98992
G1 X46 Y138.1 E205.18992
G1 X45.275 Y138.06 E205.27705
G1 X44.558 Y137.941 E205.36427
G1 X43.859 Y137.743 E205.45145
G1 X43.186 Y137.47 E205.5386
G1 X42.547 Y137.125 E205.62574
G1 X41.95 Y136.711 E205.71292
G1 X41.402 Y136.235 E205.80003
G1 X40.909 Y135.701 E205.88724
G1 X40.479 Y135.116 E205.97436
G1 X40.115 Y134.487 E206.06157
G1 X39.822 Y133.822 E206.14877
G1 X39.604 Y133.129 E206.23595
G1 X39.464 Y132.417 E206.32303
G1 X39.4 Y131.5 E206.43334
G1 X39.4 Y128.515 E206.79154
G1 X39.44 Y127.79 E206.87867
G1 X39.559 Y127.073 E206.96588
G1 X39.757 Y126.374 E207.05307
G1 X40.03 Y125.701 E207.14022
G1 X40.375 Y125.062 E207.22736
G1 X40.789 Y124.465 E207.31454
G1 X41.265 Y123.917 E207.40164
G1 X41.799 Y123.424 E207.48886
G1 X42.384 Y122.994 E207.57598
G1 X43.013 Y122.63 E207.66319
G1 X43.678 Y122.337 E207.75039
G1 X44.371 Y122.119 E207.83757
G1 X45.083 Y121.979 E207.92464
G1 X45.997 Y121.915 E208.03459
G1 X71.4 Y121.903 E211.08295
G1 X71.4 Y91.5 E214.73131
G1 X71.44 Y90.775 E214.81845
G1 X71.559 Y90.058 E214.90566
